packages/calcite-ui-icons/icons/subheading-4-rtl-32.svg

<svg xmlns="http://www.w3.org/2000/svg" viewBox="0 0 32 32"><path d="M24 11H3V9h21v2zm5 5H3v1h26v-1zm0 6H3v1h26v-1zm0 6H3v1h26v-1zm0-24H3v1h26V4zm-1 4v2h-1V8h-1v3h2v2h1V8h-1z"/><path fill="none" d="M0 0h32v32H0z"/></svg>

<?xml version="1.0" encoding="UTF-8"?><svg id="icons" xmlns="http://www.w3.org/2000/svg" viewBox="0 0 32 32"><defs><style>.cls-1{fill:none;}</style></defs><rect class="cls-1" x="0" width="32" height="32" transform="translate(32 32) rotate(-180)"/><path d="M24,11H3v-2h21v2ZM29,16H3s0,1,0,1h26s0-1,0-1ZM29,22H3s0,1,0,1h26s0-1,0-1ZM29,28H3s0,1,0,1h26s0-1,0-1ZM29,4H3s0,.99998,0,.99998h26s0-.99998,0-.99998ZM28,8v2h-1v-2h-1v3h2v2h1v-5h-1Z"/></svg>
